fa/microchip.svg

<svg xmlns="http://www.w3.org/2000/svg" viewBox="0 0 512 512" height="1em" width="1em">
  <path d="M160 352h192V160H160v192zm288-176h48c8.8 0 16-7.2 16-16s-7.162-16-16-16h-48v-16c0-35.35-28.65-64-64-64h-16V16c0-8.836-7.2-16-16-16-8.836 0-16 7.164-16 16v48h-64V16c0-8.836-7.2-16-16-16s-16 7.164-16 16v48h-64V16c0-8.836-7.2-16-16-16s-16 7.164-16 16v48h-16c-35.35 0-64 28.65-64 64v16H16c-8.836 0-16 7.2-16 16s7.164 16 16 16h48v64H16c-8.836 0-16 7.2-16 16s7.164 16 16 16h48v64H16c-8.836 0-16 7.2-16 16s7.164 16 16 16h48v16c0 35.35 28.65 64 64 64h16v48c0 8.8 7.2 16 16 16 8.838 0 16-7.164 16-16v-48h64v48c0 8.836 7.164 16 16 16 8.838 0 16-7.164 16-16v-48h64v48c0 8.836 7.164 16 16 16 8.838 0 16-7.164 16-16v-48h16c35.35 0 64-28.65 64-64v-16h48c8.838 0 16-7.164 16-16s-7.162-16-16-16h-48v-64h48c8.8 0 16-7.2 16-16s-7.162-16-16-16h-48v-64zm-64 192c0 8.836-7.162 16-16 16H144c-8.8 0-16-7.2-16-16V144c0-8.8 7.2-16 16-16h224c8.8 0 16 7.2 16 16v224z"/>
</svg>

<svg xmlns="http://www.w3.org/2000/svg" viewBox="0 0 512 512" height="1em" width="1em">
  <path d="M160 352h192V160H160V352zM448 176h48C504.8 176 512 168.8 512 160s-7.162-16-16-16H448V128c0-35.35-28.65-64-64-64h-16V16C368 7.164 360.8 0 352 0c-8.836 0-16 7.164-16 16V64h-64V16C272 7.164 264.8 0 256 0C247.2 0 240 7.164 240 16V64h-64V16C176 7.164 168.8 0 160 0C151.2 0 144 7.164 144 16V64H128C92.65 64 64 92.65 64 128v16H16C7.164 144 0 151.2 0 160s7.164 16 16 16H64v64H16C7.164 240 0 247.2 0 256s7.164 16 16 16H64v64H16C7.164 336 0 343.2 0 352s7.164 16 16 16H64V384c0 35.35 28.65 64 64 64h16v48C144 504.8 151.2 512 160 512c8.838 0 16-7.164 16-16V448h64v48c0 8.836 7.164 16 16 16c8.838 0 16-7.164 16-16V448h64v48c0 8.836 7.164 16 16 16c8.838 0 16-7.164 16-16V448H384c35.35 0 64-28.65 64-64v-16h48c8.838 0 16-7.164 16-16s-7.162-16-16-16H448v-64h48C504.8 272 512 264.8 512 256s-7.162-16-16-16H448V176zM384 368c0 8.836-7.162 16-16 16h-224C135.2 384 128 376.8 128 368v-224C128 135.2 135.2 128 144 128h224C376.8 128 384 135.2 384 144V368z"/>
</svg>
